!!!OTL: Jin keng diao
!!!ARE: Asia, China,ˇJiangxi, Longnan
!! IV, 232
!!!SCT: C1674
!!!YEM: Copyright 1995, estate of Helmut Schaffrath.
**kern
*ICvox
*Ivox
*M2/4
*k[]
*C:
{8a
8a
8ee
8cc
=1
8ee
8dd
4a
=2
8a
8cc
4a}
=3
{8cc
8cc
8cc
8f
=4
8g
16g
16f
8d
8f
=5
2d}
=6
{8dd
8cc
8a
16a
16cc
=7
8dd
4.cc
=8
8dd
16dd
16cc
8a
16a
16cc
=9
8dd
16cc
16dd
4dd}
=10
{8f
16f
16g
8a
8f
=11
8g
16g
16f
8d
8f
=12
2d}
==
!!!AGN: Shange. NannÅ qing
!!!AMT: simple duple
!!!AIN: vox
!!!EED: Helmut Schaffrath
!!!EEV: 1.0
*-
